X: 14
%%titlespace -10
%%musicspace -20
T: Difyrrwch Gwŷr Llanfabon
M: 4/4
L: 1/4
K: Gmaj
|:G/A/|"G" BB Bd|GG GA|BB "C" ce|"D" d3 d/c/|
"G" BB Bd|"Am" AA A>B|"D" cc B/A/G/F/|"G" G3:|
e/f/|"G" gg de/f/|gg de/f/|gg "C" a/g/f/e/|"D" d3 ^c/d/|
"A" ee A^c/d/|ee Af/g/|ag fe|"D" d3 d/c/|
"G" BB Bd|GG GA|BB "C" ce|"D" d3 e/f/|
"Em" gg "D" ff|"C" ee "G" dd|"Am" ce "D" d/c/B/A/|"G" G3||

%%newpage

